assets/images/inverted_subjects/Law.svg

<svg xmlns="http://www.w3.org/2000/svg" viewBox="44.8 134.7 520.6 521" fill="#fff" xmlns:v="https://vecta.io/nano"><path d="M152.3 254.9c-11.8 1.3-20.3 12.1-19 23.9s12.1 20.3 23.9 19 20.3-12.1 19-23.9-12.1-20.3-23.9-19zm-6.6-17.4c-1 0-2 .1-2.9.3l2.9-.3z"/><path d="M505.9 510.3c-2.3-21.6-21.6-37-43.2-34.7l-39 4.3-25.2-230.5c-2.3-21.6-21.6-37-43.2-34.7l-209.6 22.9h1c-19.3 3.9-33.1 22.3-30.8 42.6 2.3 21.6 21.6 37 43.2 34.7l31.4-3.6 25.2 230.5c2.3 21.6 21.6 37 43.2 34.7l212.5-23.2c21.7-2.4 37.1-21.7 34.5-43zM158.5 307.9c-17.7 2-33.4-10.8-35.4-28.2-2-17.7 10.8-33.4 28.2-35.4 13.8-1.6 26.2 5.9 32.1 17.7 1.3 3.3 2.3 6.9 2.9 10.5l3.6 31.8-31.4 3.6zm247.9 153.2l-177.7 19.6-.9-8.5 177.7-19.6.9 8.5zM207 283.3l177.7-19.6.9 8.5-177.7 19.6-.9-8.5zm4.3 37.7L389 301.4l.9 8.5-177.7 19.6-.9-8.5zm3.9 38l177.7-19.6.9 8.5-177.7 19.6-.9-8.5zm4.3 37.6L397.2 377l.9 8.5-177.7 19.6-.9-8.5zm4.2 37.7l177.7-19.6.9 8.5-177.7 19.6-.9-8.5zm31.1 131.6a28.17 28.17 0 1 1 0-56.4 28.17 28.17 0 0 1 28.2 28.2c0 15.6-12.7 28.2-28.2 28.2zm215.7-19.6l-179.1 19.6c6.9-9.2 10.5-20.6 9.2-33.1-1.3-12.4-7.2-22.9-16-30.5l179.1-19.6c17.7-2 33.4 10.5 35 28.2 2 17.7-10.8 33.4-28.2 35.4z"/><path d="M276.4 570.2c-2.6 1.6-5.2 2.9-8.2 4.3 2.9-1 5.5-2.7 8.2-4.3z"/></svg>

<?xml version="1.0" encoding="utf-8"?>
<!-- Generator: Adobe Illustrator 18.1.1, SVG Export Plug-In . SVG Version: 6.00 Build 0)  -->
<svg version="1.1" id="Layer_10" xmlns="http://www.w3.org/2000/svg" xmlns:xlink="http://www.w3.org/1999/xlink" x="0px" y="0px"
	 viewBox="44.8 134.7 520.6 521" enable-background="new 44.8 134.7 520.6 521" xml:space="preserve">
<g>
	<g>
		<path fill="#FFFFFF" d="M152.3,254.9c-11.8,1.3-20.3,12.1-19,23.9c1.3,11.8,12.1,20.3,23.9,19c11.8-1.3,20.3-12.1,19-23.9
			C174.9,262.1,164.1,253.6,152.3,254.9z"/>
		<path fill="#FFFFFF" d="M145.7,237.5c-1,0-2,0.1-2.9,0.3L145.7,237.5z"/>
	</g>
	<path fill="#FFFFFF" d="M505.9,510.3c-2.3-21.6-21.6-37-43.2-34.7l-39,4.3l-25.2-230.5c-2.3-21.6-21.6-37-43.2-34.7l-209.6,22.9
		c0.3,0,0.7,0,1,0c-19.3,3.9-33.1,22.3-30.8,42.6c2.3,21.6,21.6,37,43.2,34.7l31.4-3.6l25.2,230.5c2.3,21.6,21.6,37,43.2,34.7
		l212.5-23.2C493.1,550.9,508.5,531.6,505.9,510.3z M158.5,307.9c-17.7,2-33.4-10.8-35.4-28.2c-2-17.7,10.8-33.4,28.2-35.4
		c13.8-1.6,26.2,5.9,32.1,17.7c1.3,3.3,2.3,6.9,2.9,10.5l3.6,31.8L158.5,307.9z M406.4,461.1l-177.7,19.6l-0.9-8.5l177.7-19.6
		L406.4,461.1z M207,283.3l177.7-19.6l0.9,8.5l-177.7,19.6L207,283.3z M211.3,321L389,301.4l0.9,8.5l-177.7,19.6L211.3,321z
		 M215.2,359l177.7-19.6l0.9,8.5l-177.7,19.6L215.2,359z M219.5,396.6l177.7-19.6l0.9,8.5l-177.7,19.6L219.5,396.6z M223.7,434.3
		l177.7-19.6l0.9,8.5l-177.7,19.6L223.7,434.3z M254.8,565.9c-15.6,0-28.2-12.6-28.2-28.2s12.6-28.2,28.2-28.2
		c15.6,0,28.2,12.6,28.2,28.2S270.3,565.9,254.8,565.9z M470.5,546.3l-179.1,19.6c6.9-9.2,10.5-20.6,9.2-33.1
		c-1.3-12.4-7.2-22.9-16-30.5l179.1-19.6c17.7-2,33.4,10.5,35,28.2C500.7,528.6,487.9,544.3,470.5,546.3z"/>
	<path fill="#FFFFFF" d="M276.4,570.2c-2.6,1.6-5.2,2.9-8.2,4.3C271.1,573.5,273.7,571.8,276.4,570.2z"/>
</g>
<path fill="none" d="M305.5,134.7c-144.1,0-260.6,116.6-260.6,260.6c0,143.7,116.6,260.3,260.3,260.3s260.3-116.6,260.3-260.3
	C565.8,251.3,449.2,134.7,305.5,134.7z"/>
</svg>
